icons/svg/additional/vacuum_cleaner_yes.svg

<?xml version="1.0" encoding="UTF-8" standalone="no"?>
<!-- Created with Inkscape (http://www.inkscape.org/) -->

<svg
   xmlns:dc="http://purl.org/dc/elements/1.1/"
   xmlns:cc="http://creativecommons.org/ns#"
   xmlns:rdf="http://www.w3.org/1999/02/22-rdf-syntax-ns#"
   xmlns:svg="http://www.w3.org/2000/svg"
   xmlns="http://www.w3.org/2000/svg"
   xmlns:sodipodi="http://sodipodi.sourceforge.net/DTD/sodipodi-0.dtd"
   xmlns:inkscape="http://www.inkscape.org/namespaces/inkscape"
   version="1.0"
   width="580"
   height="580"
   id="svg2"
   sodipodi:version="0.32"
   inkscape:version="0.91 r"
   sodipodi:docname="vacuum_cleaner.svg"
   inkscape:output_extension="org.inkscape.output.svg.inkscape">
  <metadata
     id="metadata10">
    <rdf:RDF>
      <cc:Work
         rdf:about="">
        <dc:format>image/svg+xml</dc:format>
        <dc:type
           rdf:resource="http://purl.org/dc/dcmitype/StillImage" />
        <cc:license
           rdf:resource="http://web.resource.org/cc/PublicDomain" />
        <dc:language>en</dc:language>
        <dc:title></dc:title>
      </cc:Work>
    </rdf:RDF>
  </metadata>
  <sodipodi:namedview
     inkscape:window-height="1004"
     inkscape:window-width="1920"
     inkscape:pageshadow="2"
     inkscape:pageopacity="0.0"
     guidetolerance="10.0"
     gridtolerance="10.0"
     objecttolerance="10.0"
     borderopacity="1.0"
     bordercolor="#666666"
     pagecolor="#ffffff"
     id="base"
     showgrid="false"
     inkscape:zoom="0.35355339"
     inkscape:cx="727.35152"
     inkscape:cy="621.08199"
     inkscape:window-x="1680"
     inkscape:window-y="0"
     inkscape:current-layer="svg2"
     inkscape:window-maximized="1"
     inkscape:snap-bbox="true" />
  <defs
     id="defs4">
    <inkscape:perspective
       sodipodi:type="inkscape:persp3d"
       inkscape:vp_x="0 : 290 : 1"
       inkscape:vp_y="0 : 1000 : 0"
       inkscape:vp_z="580 : 290 : 1"
       inkscape:persp3d-origin="290 : 193.33333 : 1"
       id="perspective12" />
    <style
       type="text/css"
       id="style6">
   
    .fil0 {fill:#EF7900}
   
  </style>
    <inkscape:perspective
       id="perspective6807"
       inkscape:persp3d-origin="29.116032 : 19.410688 : 1"
       inkscape:vp_z="58.232063 : 29.116032 : 1"
       inkscape:vp_y="0 : 1000 : 0"
       inkscape:vp_x="0 : 29.116032 : 1"
       sodipodi:type="inkscape:persp3d" />
    <inkscape:perspective
       id="perspective6954"
       inkscape:persp3d-origin="290 : 193.33333 : 1"
       inkscape:vp_z="580 : 290 : 1"
       inkscape:vp_y="0 : 1000 : 0"
       inkscape:vp_x="0 : 290 : 1"
       sodipodi:type="inkscape:persp3d" />
    <inkscape:perspective
       id="perspective2541"
       inkscape:persp3d-origin="240 : 160 : 1"
       inkscape:vp_z="480 : 240 : 1"
       inkscape:vp_y="0 : 1000 : 0"
       inkscape:vp_x="0 : 240 : 1"
       sodipodi:type="inkscape:persp3d" />
    <inkscape:perspective
       id="perspective2750"
       inkscape:persp3d-origin="215 : 143.33333 : 1"
       inkscape:vp_z="430 : 215 : 1"
       inkscape:vp_y="0 : 1000 : 0"
       inkscape:vp_x="0 : 215 : 1"
       sodipodi:type="inkscape:persp3d" />
    <inkscape:perspective
       id="perspective3730"
       inkscape:persp3d-origin="88.929146 : 101.19778 : 1"
       inkscape:vp_z="177.85829 : 151.79668 : 1"
       inkscape:vp_y="0 : 1000 : 0"
       inkscape:vp_x="0 : 151.79668 : 1"
       sodipodi:type="inkscape:persp3d" />
  </defs>
  <g
     id="g1327">
    <path
       d="M 66.275,1.768 C 24.94,1.768 1.704,23.139 1.704,66.804 L 1.704,516.927 C 1.704,557.771 22.598,579.156 63.896,579.156 L 515.92,579.156 C 557.227,579.156 578.149,558.84 578.149,516.927 L 578.149,66.804 C 578.149,24.203 557.227,1.768 514.627,1.768 C 514.624,1.768 66.133,1.625 66.275,1.768 z"
       style="fill:#111111;stroke:#eeeeee;stroke-width:3.40799999"
       id="path1329" />
  </g>
  <g
     style="font-size:36.50536728px;font-style:normal;font-variant:normal;font-weight:bold;font-stretch:normal;text-align:start;line-height:125%;letter-spacing:0px;word-spacing:0px;writing-mode:lr-tb;text-anchor:start;fill:#000000;fill-opacity:1;stroke:none;font-family:Sans;-inkscape-font-specification:Sans Bold"
     id="text3857" />
  <g
     style="font-size:25.55375862px;font-style:normal;font-variant:normal;font-weight:bold;font-stretch:normal;text-align:start;line-height:125%;letter-spacing:0px;word-spacing:0px;writing-mode:lr-tb;text-anchor:start;fill:#000000;fill-opacity:1;stroke:none;font-family:Sans;-inkscape-font-specification:Sans Bold"
     id="text3896" />
  <g
     id="g8144"
     transform="matrix(0.21235796,0,0,0.21235796,323.3892,78.646311)" />
  <g
     transform="matrix(0.21235796,0,0,0.21235796,389.3892,78.646311)"
     id="g8150" />
  <g
     id="g4354"
     transform="matrix(0.31972367,0,0,0.31972367,268.65635,192.82199)" />
  <path
     inkscape:connector-curvature="0"
     d="m 95.704954,513.30906 c -32.158598,0 -58.313558,-26.16493 -58.313558,-58.31357 0,-32.14862 26.15496,-58.31355 58.313558,-58.31355 32.158576,0 58.313536,26.16493 58.313536,58.31355 0,32.14864 -26.15496,58.31357 -58.313536,58.31357 z"
     id="path3"
     style="fill:#ffffff;fill-opacity:1" />
  <path
     inkscape:connector-curvature="0"
     d="m 166.57334,265.82738 c -73.28769,0 -120.649466,45.02201 -120.649466,114.70557 l 0,14.15774 c 13.530515,-11.19078 30.884178,-17.93115 49.78108,-17.93115 43.140366,0 78.225976,35.08571 78.225976,78.226 0,18.8969 -6.74031,36.2506 -17.93118,49.78109 l 10.57359,0 c 58.13431,0.0107 168.08084,-18.00083 168.08084,-86.13124 0,-63.1224 -86.92776,-152.80801 -168.08084,-152.80801 z"
     id="path5"
     style="fill:#ffffff;fill-opacity:1" />
  <path
     inkscape:connector-curvature="0"
     d="m 548.26546,482.77714 -162.64978,46.82423 -11.01749,-38.27055 c -3.03805,-10.55311 3.07341,-21.60594 13.62658,-24.64402 l 124.37931,-35.80676 c 10.55309,-3.0381 21.60593,3.07344 24.64398,13.62655 l 11.0174,38.27055 z"
     id="path7"
     style="fill:#ffffff;fill-opacity:1" />
  <path
     style="fill:none;fill-rule:evenodd;stroke:#ffffff;stroke-width:37.43945312;stroke-linecap:butt;stroke-linejoin:miter;stroke-miterlimit:4;stroke-dasharray:none;stroke-opacity:1"
     d="m 269.37129,277.69047 c 0,0 28.08191,-36.83272 24.20685,-54.38537 -2.87039,-14.29608 -8.07301,-20.65212 -32.81547,-31.60109 -65.81787,-29.1255 -149.92348,-56.6506 -158.58921,-65.36409 -30.144205,-30.310279 -2.258641,-66.846266 34.44993,-58.988022 35.49554,7.59857 174.17123,58.113902 194.17331,69.114422 9.13489,5.02385 29.67178,13.67468 36.14716,32.54362 23.51819,87.77123 74.96658,256.49082 74.96658,256.49082"
     id="path4445"
     inkscape:connector-curvature="0"
     sodipodi:nodetypes="ccsssscc" />
</svg>

<svg width="580" height="580" viewBox="0 0 580 580" fill="none" xmlns="http://www.w3.org/2000/svg">
<path d="M95.7049 513.309C63.5463 513.309 37.3914 487.144 37.3914 454.995C37.3914 422.847 63.5463 396.682 95.7049 396.682C127.863 396.682 154.018 422.847 154.018 454.995C154.018 487.144 127.863 513.309 95.7049 513.309V513.309Z" fill="white"/>
<path d="M166.573 265.827C93.2856 265.827 45.9238 310.849 45.9238 380.533V394.691C59.4543 383.5 76.808 376.76 95.7049 376.76C138.845 376.76 173.931 411.845 173.931 454.986C173.931 473.882 167.191 491.236 156 504.767H166.573C224.708 504.777 334.654 486.766 334.654 418.635C334.654 355.513 247.726 265.827 166.573 265.827V265.827Z" fill="white"/>
<path d="M548.266 482.777L385.616 529.601L374.598 491.331C371.56 480.778 377.672 469.725 388.225 466.687L512.604 430.88C523.157 427.842 534.21 433.953 537.248 444.507L548.266 482.777V482.777Z" fill="white"/>
<path d="M269.371 277.69C269.371 277.69 297.453 240.858 293.578 223.305C290.708 209.009 285.505 202.653 260.763 191.704C194.945 162.578 110.839 135.053 102.173 126.34C72.0292 96.0295 99.9148 59.4936 136.623 67.3518C172.119 74.9504 310.795 125.466 330.797 136.466C339.932 141.49 360.468 150.141 366.944 169.01C390.462 256.781 441.91 425.501 441.91 425.501" stroke="white" stroke-width="37.4395"/>
</svg>
